public/assets/arrow-icon.svg

<svg fill="none" height="24" viewBox="0 0 24 24" width="24" xmlns="http://www.w3.org/2000/svg"><circle cx="12" cy="12" fill="#ff5900" r="12"/><path d="m7.46967 15.4698c-.29289.2929-.29289.7678 0 1.0607.29289.2928.76777.2928 1.06066 0zm9.28033-7.46968c0-.41421-.3358-.75-.75-.75h-6.75c-.41421 0-.75.33579-.75.75 0 .41422.33579.75.75.75h6v5.99998c0 .4142.3358.75.75.75s.75-.3358.75-.75zm-8.21967 8.53038 7.99997-8.00005-1.0606-1.06066-8.00003 8.00001z" fill="#fff"/></svg>

<svg width="24" height="24" viewBox="0 0 24 24" fill="none" xmlns="http://www.w3.org/2000/svg">
<circle cx="12" cy="12" r="12" fill="#FF5900"/>
<path d="M7.46967 15.4698C7.17678 15.7627 7.17678 16.2376 7.46967 16.5305C7.76256 16.8233 8.23744 16.8233 8.53033 16.5305L7.46967 15.4698ZM16.75 8.00012C16.75 7.58591 16.4142 7.25012 16 7.25012H9.25C8.83579 7.25012 8.5 7.58591 8.5 8.00012C8.5 8.41434 8.83579 8.75012 9.25 8.75012H15.25V14.7501C15.25 15.1643 15.5858 15.5001 16 15.5001C16.4142 15.5001 16.75 15.1643 16.75 14.7501V8.00012ZM8.53033 16.5305L16.5303 8.53045L15.4697 7.46979L7.46967 15.4698L8.53033 16.5305Z" fill="white"/>
</svg>
